X: 495
P: Longways for as many as will
M: C|
L: 1/8
K: D
[|\
d2 A4 f2 | e4 A4 | B2 G4 =c2 | A4 F4 |\
e2 g4 b2 | g4 b4 | f2 d4 e2 | f4 a4 |\
e2 c4 A2 | d4 f4 | e2B2 (Bcd2) | c2 A4 E2 |
(AB) (AB) (AB) c2 | B2 d4 c2 | (Bc) (Bc) (Bc) d2 | c2 e4 d2 |\
(cd) (cd) (cd) e2 | (de)(de) (fg)a2 | (ba)(gf) (gf) (ed) | d4 A4 |\

